X: 18954
T: Iníon Ní Scannláin
R: waltz
M: 3/4
K: Gmajor
"G" G3 A{/c} AG|"Em7"{/c} BG E{/F}E{/D} EF|"G" .G2 GA{/c} AG|Bd{/e} dG B/c/d|
"C" e3 g{fg} fd|"Em7" .e2{/f} ed B/A/G|"Am7"{G} A2{/c} AG AB|"D"{/c} Bd{/e} de{/c} BA|
"G"{F} G3 A{/c} AG|"Em7"{/c} BG E{/F}E{/D} EF|"G" .G2 GA{/c} AG|Bd{/e} dG B/c/d|
"C" e3 g{fg} fd|"Em7" .e2{/f} ed B/A/G|"Am7"{G} A2{/c} AG AB|"D"{/c} Bd{/e} dG B/c/d||
"C" .e3 a{/b} a{/c'}b|"Em7" g2{/a} gf{/a} ge|"D" d3 e fg|"C"{/c} BA G{/B}G B/c/d|
"Am7" .e3 a{/b} a{/c'}b|"G" g2{/a} gd e/f/g/a/|"Cmaj7" b6|"Em7" bd ad gd|"C" e3 g{fg} fd|
"Em7" .e2{/f} ed B/A/G|"Am7"{G} A2{/c} AG AB|"D"{/c} Bd{/e} de B/A/G|"Am7"{G} .A2 AB{AB} AG|
"D"{D} E2{/F} ED E/F/G|1 "Am7"{G} A2{/c} AG AB|"D"{/c} Bd{/e} de{/c} BA:|2 "Am7" A4{/c} AB|
"D" d4- de||"Em7" B6|"Bm7" d6|"Em7" B6|"Bm7" d6|"C" G4- GB|"G" G4- GB|"Am7" A4- AB|
"D" d6|"Em7" B6|"Bm7" d4- de|"Em7" B6|"Bm7" d6|"C" G4{/A} GF|"G" G4 AB|"Am7" A4{/c} AB|
"D" d6|"Em7" B6|"Bm7" d4 de|"Em7" B6|"Bm7" d6|"C" g4- gb|"G" g4 e/d/B|"Am7" A4{/c} AB|
"D" d6||"G" G3 A{/c} AG|"Em7"{/c} BG E{/F}E{/D} EF|"G" .G2 GA{/c} AG|Bd{/e} dG B/c/d|
"C" e3 g{fg} fd|"Em7" .e2{/f} ed B/A/G|"Am7"{G} A2{/c} AG AB|"D"{/c} Bd{/e} de{/c} BA|
"G"{F} G3 A{/c} AG|"Em7"{/c} BG E{/F}E{/D} EF|"G" .G2 GA{/c} AG|Bd{/e} dG B/c/d|
"C" e3 g{fg} fd|"Em7" .e2{/f} ed B/A/G|"Am7"{G} A2{/c} AG AB|"D"{/c} Bd{/e} dG B/c/d|
"C" .e3 a{/b} a{/c'}b|"Em7" g2{/a} gf{/a} ge|"D" d3 e fg|"C"{/c} BA G{/B}G B/c/d|
"Am7" .e3 a{/b} a{/c'}b|"G" g2{/a} gd e/f/g/a/|"Cmaj7" b6|"Em7" bd ad gd|"C" e3 g{fg} fd|
"Em7" .e2{/f} ed B/A/G|"Am7"{G} A2{/c} AG AB|"D" d6-|d4 Bd|"Em7" e4{/f} e{/d}e|
B2{/c} BA G/A/B|"Am7"{G} .A2 AB{AB} AG|"D"{D} E2{/F} ED E/F/G|"Am7"{G} A2{/c} AG AB|
"D"{/c} Bd{/e} de{/c} BA|"G" !fermata!G6||

